icons/chart-bar.svg

<svg xmlns="http://www.w3.org/2000/svg" width="1em" height="1em" viewBox="0 0 256 256"><path fill="currentColor" d="M224 200h-8V40a8 8 0 0 0-8-8h-56a8 8 0 0 0-8 8v40H96a8 8 0 0 0-8 8v40H48a8 8 0 0 0-8 8v64h-8a8 8 0 0 0 0 16h192a8 8 0 0 0 0-16M160 48h40v152h-40Zm-56 48h40v104h-40Zm-48 48h32v56H56Z"/></svg>

<svg xmlns="http://www.w3.org/2000/svg" viewBox="0 0 256 256" fill="currentColor"><path d="M224,200h-8V40a8,8,0,0,0-8-8H152a8,8,0,0,0-8,8V80H96a8,8,0,0,0-8,8v40H48a8,8,0,0,0-8,8v64H32a8,8,0,0,0,0,16H224a8,8,0,0,0,0-16ZM160,48h40V200H160ZM104,96h40V200H104ZM56,144H88v56H56Z"/></svg>
